X: 10615
T: Dowd's Favourite
R: reel
M: 4/4
K: Gdorian
F|D3G BABF|CF{G}F{E}F CFAF|DGGA B3/2{c}B/{A}Bd|
cAfA AGGF|DG .G/.G/.G BABF|CF{G}F{E}F CFAF|
DGGA B3/2{c}B/{A}Bd|cAfA AG G z||
B2dB FBdB|DFBd cAFA|.B/.B/.B dB fB{c}B{A}B|
.B/.B/.B dB cAFA|GBAc Bage|fdcA BG G z||
g2df (g/f/g) bg|fdcA BG G z|g2df (g/f/g) bg|
fcce fgcA|GBAc Bage|fdcA B2AF|G8||

